_site/images/icons/processor.svg

<svg height="36" viewBox="0 0 36 36" width="36" xmlns="http://www.w3.org/2000/svg"><path d="m21.6 12.6h-7.2c-.9941125 0-1.8.8058875-1.8 1.8v7.2c0 .9941125.8058875 1.8 1.8 1.8h7.2c.9941125 0 1.8-.8058875 1.8-1.8v-7.2c0-.9941125-.8058875-1.8-1.8-1.8zm-1.8 7.2h-3.6v-3.6h3.6zm14.4 0c.9941125 0 1.8-.8058875 1.8-1.8s-.8058875-1.8-1.8-1.8h-3.6v-3.6h3.6c.9941125 0 1.8-.8058875 1.8-1.8 0-.99411255-.8058875-1.8-1.8-1.8h-3.924c-.544288-1.52876853-1.7472315-2.73171197-3.276-3.276v-3.924c0-.99411255-.8058875-1.8-1.8-1.8s-1.8.80588745-1.8 1.8v3.6h-3.6v-3.6c0-.99411255-.8058875-1.8-1.8-1.8s-1.8.80588745-1.8 1.8v3.6h-3.6v-3.6c0-.99411255-.8058875-1.8-1.8-1.8-.99411255 0-1.8.80588745-1.8 1.8v3.924c-1.52876853.54428803-2.73171197 1.74723147-3.276 3.276h-3.924c-.99411255 0-1.8.80588745-1.8 1.8 0 .9941125.80588745 1.8 1.8 1.8h3.6v3.6h-3.6c-.99411255 0-1.8.8058875-1.8 1.8s.80588745 1.8 1.8 1.8h3.6v3.6h-3.6c-.99411255 0-1.8.8058875-1.8 1.8s.80588745 1.8 1.8 1.8h3.924c.54428803 1.5287685 1.74723147 2.731712 3.276 3.276v3.924c0 .9941125.80588745 1.8 1.8 1.8.9941125 0 1.8-.8058875 1.8-1.8v-3.6h3.6v3.6c0 .9941125.8058875 1.8 1.8 1.8s1.8-.8058875 1.8-1.8v-3.6h3.6v3.6c0 .9941125.8058875 1.8 1.8 1.8s1.8-.8058875 1.8-1.8v-3.924c1.5287685-.544288 2.731712-1.7472315 3.276-3.276h3.924c.9941125 0 1.8-.8058875 1.8-1.8s-.8058875-1.8-1.8-1.8h-3.6v-3.6zm-7.2 5.4c0 .9941125-.8058875 1.8-1.8 1.8h-14.4c-.99411255 0-1.8-.8058875-1.8-1.8v-14.4c0-.99411255.80588745-1.8 1.8-1.8h14.4c.9941125 0 1.8.80588745 1.8 1.8z" fill="#0b7a76"/></svg>

<?xml version="1.0" encoding="UTF-8"?>
<svg width="36px" height="36px" viewBox="0 0 36 36" version="1.1" xmlns="http://www.w3.org/2000/svg" xmlns:xlink="http://www.w3.org/1999/xlink">
    <!-- Generator: Sketch 52.6 (67491) - http://www.bohemiancoding.com/sketch -->
    <title>processor</title>
    <desc>Created with Sketch.</desc>
    <g id="Landing-page" stroke="none" stroke-width="1" fill="none" fill-rule="evenodd">
        <g id="1.1--Home" transform="translate(-573.000000, -8166.000000)" fill="#0B7A76" fill-rule="nonzero">
            <g id="Benefit" transform="translate(92.000000, 7937.000000)">
                <g id="Group-50" transform="translate(81.000000, 229.000000)">
                    <g id="Group-11">
                        <g id="processor" transform="translate(400.000000, 0.000000)">
                            <path d="M21.6,12.6 L14.4,12.6 C13.4058875,12.6 12.6,13.4058875 12.6,14.4 L12.6,21.6 C12.6,22.5941125 13.4058875,23.4 14.4,23.4 L21.6,23.4 C22.5941125,23.4 23.4,22.5941125 23.4,21.6 L23.4,14.4 C23.4,13.4058875 22.5941125,12.6 21.6,12.6 Z M19.8,19.8 L16.2,19.8 L16.2,16.2 L19.8,16.2 L19.8,19.8 Z M34.2,19.8 C35.1941125,19.8 36,18.9941125 36,18 C36,17.0058875 35.1941125,16.2 34.2,16.2 L30.6,16.2 L30.6,12.6 L34.2,12.6 C35.1941125,12.6 36,11.7941125 36,10.8 C36,9.80588745 35.1941125,9 34.2,9 L30.276,9 C29.731712,7.47123147 28.5287685,6.26828803 27,5.724 L27,1.8 C27,0.80588745 26.1941125,0 25.2,0 C24.2058875,0 23.4,0.80588745 23.4,1.8 L23.4,5.4 L19.8,5.4 L19.8,1.8 C19.8,0.80588745 18.9941125,0 18,0 C17.0058875,0 16.2,0.80588745 16.2,1.8 L16.2,5.4 L12.6,5.4 L12.6,1.8 C12.6,0.80588745 11.7941125,0 10.8,0 C9.80588745,0 9,0.80588745 9,1.8 L9,5.724 C7.47123147,6.26828803 6.26828803,7.47123147 5.724,9 L1.8,9 C0.80588745,9 -4.4408921e-16,9.80588745 -4.4408921e-16,10.8 C-4.4408921e-16,11.7941125 0.80588745,12.6 1.8,12.6 L5.4,12.6 L5.4,16.2 L1.8,16.2 C0.80588745,16.2 3.55271368e-16,17.0058875 3.55271368e-16,18 C3.55271368e-16,18.9941125 0.80588745,19.8 1.8,19.8 L5.4,19.8 L5.4,23.4 L1.8,23.4 C0.80588745,23.4 3.55271368e-16,24.2058875 3.55271368e-16,25.2 C3.55271368e-16,26.1941125 0.80588745,27 1.8,27 L5.724,27 C6.26828803,28.5287685 7.47123147,29.731712 9,30.276 L9,34.2 C9,35.1941125 9.80588745,36 10.8,36 C11.7941125,36 12.6,35.1941125 12.6,34.2 L12.6,30.6 L16.2,30.6 L16.2,34.2 C16.2,35.1941125 17.0058875,36 18,36 C18.9941125,36 19.8,35.1941125 19.8,34.2 L19.8,30.6 L23.4,30.6 L23.4,34.2 C23.4,35.1941125 24.2058875,36 25.2,36 C26.1941125,36 27,35.1941125 27,34.2 L27,30.276 C28.5287685,29.731712 29.731712,28.5287685 30.276,27 L34.2,27 C35.1941125,27 36,26.1941125 36,25.2 C36,24.2058875 35.1941125,23.4 34.2,23.4 L30.6,23.4 L30.6,19.8 L34.2,19.8 Z M27,25.2 C27,26.1941125 26.1941125,27 25.2,27 L10.8,27 C9.80588745,27 9,26.1941125 9,25.2 L9,10.8 C9,9.80588745 9.80588745,9 10.8,9 L25.2,9 C26.1941125,9 27,9.80588745 27,10.8 L27,25.2 Z" id="Shape"></path>
                        </g>
                    </g>
                </g>
            </g>
        </g>
    </g>
</svg>
